dist/assets/img/production.svg

<svg width="35" height="35" viewBox="0 0 35 35" fill="none" xmlns="http://www.w3.org/2000/svg">
<g clip-path="url(#clip0_159_36)">
<path d="M0 17.2256C0.267042 16.6514 0.715455 16.4518 1.34341 16.4637C2.89281 16.4937 4.4422 16.4737 5.99159 16.4737C6.86746 16.4737 7.23657 16.8383 7.24933 17.7132C7.31496 22.3933 10.7291 26.5539 15.2825 27.5081C15.3262 27.5172 15.3736 27.5218 15.4347 27.5327C15.4402 27.4215 15.4484 27.3222 15.4484 27.2228C15.4484 26.0152 15.4411 24.8076 15.4556 23.6C15.4556 23.363 15.3764 23.2655 15.1676 23.1807C14.0579 22.7299 13.1045 21.9638 12.4255 20.977C11.7465 19.9902 11.3715 18.826 11.347 17.6284C11.3361 16.9066 11.7535 16.4782 12.479 16.4746C13.0945 16.471 13.7097 16.471 14.3246 16.4746C15.0036 16.4792 15.4119 16.8702 15.4465 17.5391C15.5058 18.6893 16.3798 19.5442 17.4936 19.5488C18.6073 19.5533 19.4868 18.6921 19.546 17.5437C19.5798 16.8711 19.9872 16.4773 20.6625 16.4728C21.289 16.4685 21.9154 16.4685 22.5418 16.4728C23.2391 16.4783 23.6784 16.9166 23.6419 17.6202C23.5052 20.2278 22.2411 22.0861 19.8641 23.1634C19.6144 23.2773 19.5369 23.3958 19.5406 23.662C19.5561 24.8349 19.547 26.0079 19.547 27.1818V27.5464C21.4992 27.1362 23.1762 26.2659 24.5825 24.9033C26.6286 22.9219 27.6767 20.4948 27.7524 17.6503C27.7724 16.8683 28.1588 16.4746 28.9372 16.4746C30.5777 16.4746 32.2183 16.4746 33.8588 16.4746C34.5296 16.4746 34.9908 16.8856 34.9999 17.4826C35.009 18.0796 34.5442 18.5198 33.8561 18.5244C33.5289 18.5244 33.2017 18.5244 32.869 18.5244C32.7833 19.1879 32.7013 19.8167 32.6156 20.4784C32.9474 20.5696 33.2837 20.6607 33.6182 20.76C34.2388 20.9423 34.5569 21.4646 34.3965 22.036C34.2361 22.6075 33.7011 22.8955 33.0759 22.7387C32.7569 22.6585 32.4379 22.5683 32.0897 22.4744L31.3305 24.2972C31.6122 24.4631 31.9038 24.6308 32.1918 24.804C32.7624 25.1448 32.951 25.74 32.6548 26.254C32.3586 26.768 31.7434 26.9048 31.1656 26.5794C30.8794 26.419 30.5969 26.2522 30.3007 26.0818L29.0994 27.6375C29.361 27.9046 29.6371 28.1698 29.8933 28.4532C30.0411 28.612 30.1343 28.8139 30.159 29.0294C30.1838 29.2449 30.1389 29.4627 30.0309 29.6508C29.9322 29.8398 29.7732 29.9903 29.5792 30.0787C29.3852 30.167 29.1673 30.188 28.96 30.1384C28.7437 30.0756 28.5437 29.9665 28.3739 29.8185C28.1197 29.6098 27.8982 29.3628 27.6621 29.1304C27.647 29.1214 27.6308 29.1143 27.6138 29.1095L26.0717 30.2943C26.2185 30.5504 26.3579 30.7965 26.4983 31.0407C26.892 31.7252 26.799 32.334 26.2494 32.6512C25.7564 32.9355 25.071 32.8098 24.7274 32.0825C24.6062 31.8264 24.4449 31.5903 24.289 31.3242L22.4662 32.0743C22.5513 32.3999 22.6357 32.7262 22.7196 33.0531C22.8845 33.7002 22.6011 34.2379 22.0141 34.3993C21.4463 34.5533 20.935 34.2352 20.75 33.6082C20.6589 33.2828 20.5677 32.9547 20.4766 32.6111L18.5207 32.8681C18.5207 33.2181 18.5207 33.5571 18.5207 33.8971C18.5134 34.5351 18.0914 34.9908 17.5063 34.9999C16.9212 35.009 16.4764 34.5442 16.4719 33.8843C16.4719 33.5544 16.4719 33.2245 16.4719 32.8699L14.5169 32.6093C14.4258 32.9365 14.341 33.2636 14.2435 33.5881C14.0539 34.2398 13.5417 34.5606 12.9602 34.3965C12.3787 34.2325 12.1026 33.6911 12.2703 33.0422C12.3523 32.725 12.4362 32.4042 12.5227 32.077L10.6999 31.3214C10.5176 31.6313 10.3481 31.9385 10.1658 32.2383C9.83591 32.7852 9.23711 32.9492 8.72855 32.6457C8.24004 32.3541 8.09877 31.7516 8.39589 31.2112C8.55994 30.9122 8.73311 30.6187 8.9163 30.2997L7.33774 29.083C7.10442 29.3255 6.87475 29.5752 6.63322 29.8121C6.16658 30.2678 5.52586 30.2897 5.11208 29.8668C4.69831 29.4439 4.72929 28.8233 5.17771 28.3703C5.41649 28.1297 5.67533 27.9091 5.92506 27.6785L4.70013 26.0754C4.41121 26.2412 4.12047 26.4126 3.82609 26.5766C3.24735 26.8993 2.63579 26.7589 2.34141 26.2394C2.04702 25.7199 2.24206 25.133 2.81716 24.7958L3.66933 24.2954C3.41869 23.6893 3.17534 23.1033 2.91742 22.479C2.61118 22.5564 2.29584 22.6348 1.9814 22.7159C1.29967 22.8927 0.770139 22.6248 0.601529 22.0233C0.439298 21.44 0.78381 20.9214 1.45369 20.7345C1.75902 20.6498 2.06525 20.5714 2.38515 20.4857C2.30039 19.8277 2.21837 19.1906 2.13361 18.5353C1.35071 18.4679 0.431096 18.7823 0 17.7724V17.2256Z" fill="#201311"/>
<path d="M30.2132 0C30.7838 0.220561 30.9788 0.662593 31.039 1.24589C31.286 3.64654 31.563 6.04445 31.8282 8.44601C31.9531 9.57707 32.0743 10.709 32.1992 11.8401C32.2174 12.0087 32.2429 12.1773 32.2694 12.3751H33.8106C34.5306 12.3751 35.0018 12.788 34.9954 13.4086C34.989 14.0293 34.526 14.4248 33.8279 14.4258H13.056V14.0329C13.056 12.5066 13.056 10.9803 13.056 9.45403C13.056 8.6766 12.654 8.27467 11.8793 8.27376C10.3755 8.27376 8.87171 8.27376 7.36788 8.27376C6.63876 8.27376 6.22224 8.6848 6.22133 9.41393C6.22133 10.9512 6.22133 12.4887 6.22133 14.0266V14.4248H5.82122C4.34019 14.4248 2.85824 14.4039 1.37811 14.4349C0.740128 14.4476 0.274399 14.2635 0.000976562 13.6729V13.1261C0.274399 12.5346 0.741951 12.3058 1.37811 12.3705C1.62055 12.3933 1.86663 12.3705 2.12 12.3705C2.12 10.0009 2.12729 7.69046 2.11453 5.37913C2.11453 4.8259 2.33236 4.46772 2.81449 4.19977C4.7485 3.14436 6.6898 2.09077 8.59464 0.977941C9.50149 0.448413 10.4056 1.01349 10.3263 1.98869C10.2889 2.45624 10.3199 2.92835 10.3199 3.4515L11.4483 2.82628C12.5921 2.18829 13.7313 1.5503 14.8797 0.922345C15.6763 0.486692 16.4537 0.950598 16.471 1.85927C16.471 2.06434 16.471 2.2694 16.471 2.47447V3.4433C16.6323 3.35854 16.7326 3.30841 16.831 3.25372C18.2249 2.48085 19.6172 1.70798 21.008 0.935104C21.4929 0.66715 21.9194 0.696315 22.2749 1.01075C22.5656 1.26594 22.6267 1.60134 22.6258 1.96864C22.6221 5.29467 22.6221 8.62009 22.6258 11.9449V12.356H24.6044C24.629 12.1737 24.6545 12.0032 24.6728 11.8346C24.7979 10.7039 24.9219 9.57251 25.0446 8.44055C25.3089 6.04263 25.586 3.64563 25.833 1.24589C25.8922 0.661682 26.0891 0.220561 26.6587 0H30.2132ZM16.8155 10.3208C17.0425 10.3208 17.2712 10.3272 17.4964 10.3208C17.7676 10.3226 18.0284 10.2166 18.2214 10.0261C18.4145 9.83561 18.524 9.57623 18.5258 9.30502C18.5276 9.0338 18.4216 8.77298 18.2311 8.57993C18.0406 8.38687 17.7812 8.27739 17.51 8.27558C17.0452 8.26191 16.5786 8.26191 16.1138 8.27558C15.8428 8.27377 15.5822 8.37967 15.3893 8.56999C15.1964 8.76031 15.087 9.01946 15.0852 9.29043C15.0834 9.5614 15.1893 9.82199 15.3796 10.0149C15.57 10.2078 15.8291 10.3171 16.1001 10.319C16.3398 10.3299 16.5786 10.3208 16.8155 10.3208Z" fill="#201311"/>
<path d="M8.29565 10.3363H10.987V14.3957H8.29565V10.3363Z" fill="#201311"/>
</g>
<defs>
<clipPath id="clip0_159_36">
<rect width="35" height="35" fill="white"/>
</clipPath>
</defs>
</svg>

<svg width="35" height="35" fill="none" xmlns="http://www.w3.org/2000/svg"><g clip-path="url(#clip0_159_36)" fill="#201311"><path d="M0 17.226c.267-.575.715-.774 1.343-.762 1.55.03 3.1.01 4.649.01.875 0 1.245.364 1.257 1.24.066 4.68 3.48 8.84 8.034 9.794.043.01.09.014.152.025.005-.111.013-.21.013-.31 0-1.208-.007-2.415.008-3.623 0-.237-.08-.335-.288-.42a6.128 6.128 0 01-3.821-5.552c-.01-.721.407-1.15 1.132-1.153.616-.004 1.23-.004 1.846 0 .679.004 1.087.395 1.122 1.064.059 1.15.933 2.005 2.047 2.01 1.113.004 1.993-.857 2.052-2.005.034-.673.441-1.067 1.117-1.071a117.69 117.69 0 011.879 0c.697.005 1.136.444 1.1 1.147-.137 2.608-1.4 4.466-3.778 5.543-.25.114-.327.233-.323.499.015 1.173.006 2.346.006 3.52v.364c1.952-.41 3.63-1.28 5.035-2.643 2.047-1.981 3.095-4.408 3.17-7.253.02-.782.407-1.175 1.185-1.175h4.922c.67 0 1.132.41 1.14 1.008.01.597-.455 1.037-1.143 1.041h-.987l-.253 1.954c.331.092.668.183 1.002.282.62.182.939.705.779 1.276-.16.572-.696.86-1.321.703-.32-.08-.638-.17-.986-.265l-.76 1.823c.282.166.574.334.862.507.57.34.759.936.463 1.45-.296.514-.912.65-1.49.325-.286-.16-.568-.327-.864-.497l-1.202 1.555c.262.268.538.533.794.816a1.016 1.016 0 01.138 1.198.957.957 0 01-1.071.487 1.55 1.55 0 01-.586-.32c-.254-.208-.476-.455-.712-.688a.201.201 0 00-.048-.02l-1.542 1.184.426.747c.394.684.301 1.293-.249 1.61-.493.284-1.178.159-1.522-.569-.12-.256-.282-.492-.438-.758l-1.823.75.254.98c.165.646-.119 1.184-.706 1.345-.568.154-1.079-.164-1.264-.79a74.026 74.026 0 01-.273-.998l-1.956.257v1.03c-.008.637-.43 1.093-1.015 1.102-.585.009-1.03-.456-1.034-1.116V32.87l-1.955-.26c-.091.327-.176.654-.274.978-.19.652-.701.973-1.283.809-.581-.164-.857-.706-.69-1.355.082-.317.166-.638.253-.965l-1.823-.756c-.182.31-.352.617-.534.917-.33.547-.929.711-1.437.408-.489-.292-.63-.894-.333-1.435.164-.299.337-.592.52-.911l-1.578-1.217c-.234.243-.463.492-.705.73-.466.455-1.107.477-1.52.054-.415-.423-.384-1.044.065-1.497.238-.24.497-.46.747-.692L4.7 26.075c-.289.166-.58.338-.874.502-.579.322-1.19.182-1.485-.338-.294-.52-.099-1.106.476-1.443l.852-.5c-.25-.607-.494-1.193-.752-1.817-.306.077-.621.156-.936.237-.681.177-1.21-.091-1.38-.693-.162-.583.183-1.102.853-1.288.305-.085.611-.164.931-.25l-.251-1.95C1.35 18.468.43 18.782 0 17.772v-.546zM30.213 0c.57.22.766.663.826 1.246.247 2.4.524 4.798.79 7.2.124 1.131.245 2.263.37 3.394.018.169.044.337.07.535h1.542c.72 0 1.19.413 1.184 1.034-.006.62-.469 1.016-1.167 1.017H13.056V9.454c0-.777-.402-1.18-1.177-1.18H7.368c-.73 0-1.146.41-1.147 1.14v5.011h-.4c-1.48 0-2.963-.021-4.443.01-.638.013-1.104-.171-1.377-.762v-.547c.273-.591.741-.82 1.377-.755.243.022.489 0 .742 0 0-2.37.007-4.68-.005-6.992 0-.553.217-.911.7-1.18C4.747 3.145 6.69 2.092 8.594.979c.906-.53 1.81.035 1.731 1.01-.037.468-.006.94-.006 1.463l1.128-.625c1.144-.638 2.283-1.276 3.432-1.904.796-.435 1.574.029 1.591.937v1.585c.161-.085.262-.136.36-.19a5039 5039 0 004.178-2.32c.485-.268.911-.239 1.267.076.29.255.352.59.35.958-.003 3.326-.003 6.651 0 9.976v.411h1.98c.024-.182.05-.353.068-.521.125-1.131.249-2.262.372-3.394.264-2.398.541-4.795.788-7.195.06-.584.256-1.025.826-1.246h3.554zM16.815 10.32c.227 0 .456.007.681 0a1.022 1.022 0 10.014-2.044 23.772 23.772 0 00-1.396 0 1.022 1.022 0 00-.014 2.043c.24.01.479.002.715.002z"/><path d="M8.296 10.336h2.691v4.06H8.296v-4.06z"/></g><defs><clipPath id="clip0_159_36"><path fill="#fff" d="M0 0h35v35H0z"/></clipPath></defs></svg>
